packages/ui-icons/svg/Solid/expand-items.svg

<svg viewBox="0 0 1920 1920" version="1.1" xmlns="http://www.w3.org/2000/svg">
    <path d="M959.921096 0.0107695155L453 506.931866 605.28095 659.212816 852.225941 412.267824 852.225941 1507.74295 605.28095 1260.79795 453 1413.0789 959.921096 1920 1466.84219 1413.0789 1314.56124 1260.79795 1067.61625 1507.74295 1067.61625 412.267824 1314.56124 659.212816 1466.84219 506.931866z" stroke="none" stroke-width="1" fill-rule="evenodd"/>
</svg>

<svg viewBox="0 0 1920 1920" xmlns="http://www.w3.org/2000/svg">
    <path d="M959.921.01 453 506.933l152.28 152.28 246.946-246.944v1095.475L605.28 1260.798 453 1413.078 959.921 1920l506.921-506.921-152.28-152.281-246.946 246.945V412.268l246.945 246.945 152.281-152.281z" fill-rule="evenodd"/>
</svg>
